X: 12
T: THE FAITHFUL SHEPHERD
B: "Old English Country Dances", Frank Kidson ed., William Reeves pub., London 1890
Z: 2010-9-26 John Chambers <jc:trillian.mit.edu>
M: C
L: 1/8
K: G
|: G2BG A2A2 | G2BG  A4 | BdBG AcAF | G2D2 B,2G,2 :|
|: B2dB c2c2 | B2dB  c4 | BdBG AcAF | G2D2 B,2G,2 :|
|: g2ge f2fd | e2e^c d4 | BdBG AcAF | G2D2 B,2G,2 :|
|: B2B2 c2c2 | B2B2  c4 | BdBG AcAF | G2D2 B,2G,2 :|


%%sep 1 1 500

%%sep 1 1 500

